packages/sources/icons/src/vitamix/repeat-fill.svg

<svg width="16" height="16" viewBox="0 0 16 16" xmlns="http://www.w3.org/2000/svg"><path fill-rule="evenodd" clip-rule="evenodd" d="M14.0001 2.66669H4.00008V0.666687L0.666748 3.33335L4.00008 6.00002V4.00002H13.3334V8.00002H14.6667V3.33335C14.6667 2.96516 14.3683 2.66669 14.0001 2.66669ZM2.00008 13.3334H12.0001V15.3334L15.3334 12.6667L12.0001 10V12H2.66675V8.00002H1.33341V12.6667C1.33341 13.0349 1.63189 13.3334 2.00008 13.3334Z"/></svg>

<svg width="16" height="16" xmlns="http://www.w3.org/2000/svg"><path fill-rule="evenodd" clip-rule="evenodd" d="M14 2.667H4v-2L.667 3.333 4 6V4h9.333v4h1.334V3.333A.667.667 0 0 0 14 2.667ZM2 13.333h10v2l3.333-2.666L12 10v2H2.667V8H1.333v4.667c0 .368.299.666.667.666Z"/></svg>
